X:1
T:Title
%%score { ( 1 3 ) | ( 2 4 ) }
L:1/8
M:4/4
K:C
V:1 treble nm="Grand Piano"
V:3 treble 
V:2 bass 
V:4 bass 
V:1
 z4 z2[Q:1/4=100] [CE][DF] | [EG][EG][_E^F][=EG] [=FA][EG][CE][DF] | %2
[M:3/4] [EG][Ec] [GB][FA] [EG]2 |[M:1/4] Bc |[M:4/4] dddd dcBd | [Ec]6 [CE][DF] | %6
 [EG][EG][_E^F][=EG] [=FA][EG][CE][DF] | [EG][Ge][Ge][Fd] [Ec]2 [GB]A | Geec dd[CEc][DFB] | %9
[M:3/4] [Ec]6 |[M:1/4] [Ec]>[GB] |[M:3/4] [FA]4 [Ac]2 |[M:1/4] [CGB]>[CFA] | %13
[M:4/4] [EG]4 [Ec]2[K:bass][K:treble] z2 | dddd [^Fe][Fd][Fc][CFA] | G6 z2 | %16
 [EG]4 [Ec]2[K:bass][K:treble] z2 | %17
[M:17/16] [FA]/-[FA]/-[FA]/-[FA]/-[FA]-<[FA][Ac]/-[Ac]-<[Ac] z/ z/ z |[M:4/4] Geec dd[CEc][DFB] | %19
[M:3/4] [CEc]6 |] %20
V:2
 z4 z2 [C,G,][C,G,] | [C,C][C,C][C,C][C,C] [C,C][C,C][C,G,][C,G,] | %2
[M:3/4] [C,C][C,G,] [F,C][F,C] [C,C]2 |[M:1/4][K:treble] [G,DG][G,CE] | %4
[M:4/4] [G,B,F][G,B,F][G,B,F][G,B,F] [G,B,F][G,CE][G,DF][G,B,F] | [C,C]6 [C,G,][C,G,] | %6
 [C,C][C,C][C,C][C,C] [C,C][C,C][C,G,][C,G,] | [C,C][C,C][G,C][G,B,] [C,C]2 [F,C][K:treble][F,CF] | %8
 [G,CE][G,CG][G,CG][G,CE] [G,B,F][G,B,F][K:bass][G,,G,][G,,G,] |[M:3/4] [C,C]6 | %10
[M:1/4] [C,G,]>[E,C] |[M:3/4] [F,C]F, F,F, F,F, |[M:1/4] F,>F, | %13
[M:4/4] C,C,C,C, .[C,G,]2 [D,G,]>[C,G,] | %14
 [G,B,G][G,B,G][G,B,G][G,B,G][K:bass] [D,A,][D,A,][D,A,]D, | z2 C2 D2 C,>C, | %16
 C,C,C,C, .[C,G,]2 [C,C]>[E,C] |[M:17/16] [F,C]F,F,F,F,F,3/2[K:treble][F,CG]>[F,CF] | %18
[M:4/4] [G,CE][G,CG][G,CG][G,CE] [G,B,F][G,B,F][K:bass]G,,G,, |[M:3/4] C,6 |] %20
V:3
 x8 | x8 |[M:3/4] x6 |[M:1/4] x2 |[M:4/4] x8 | x8 | x8 | x8 | x8 |[M:3/4] x6 |[M:1/4] x2 | %11
[M:3/4] z C CC CC |[M:1/4] x2 |[M:4/4] CCCC z[K:bass] [C,G,][K:treble] [FB]>[Ec] | x8 | %15
 B,2 E2 F2 [G,CE]>[G,DF] | CCCC z[K:bass] [C,G,][K:treble] [Ge]>[Gc] |[M:17/16] z CCCCC3/2B>A | %18
[M:4/4] x8 |[M:3/4] x6 |] %20
V:4
 x8 | x8 |[M:3/4] x6 |[M:1/4][K:treble] x2 |[M:4/4] x8 | x8 | x8 | x7[K:treble] x | x6[K:bass] x2 | %9
[M:3/4] x6 |[M:1/4] x2 |[M:3/4] x6 |[M:1/4] x2 |[M:4/4] x8 | x4[K:bass] x4 | G,,6 z2 | x8 | %17
[M:17/16] x13/2[K:treble] x2 |[M:4/4] x6[K:bass] x2 |[M:3/4] x6 |] %20

